X: 7968
T: Congress, The
R: reel
M: 4/4
K: Adorian
|:eAAG A2(3Bcd|e2af gedB|eA~A2 EAcA|BG~G2 BGBd|
eAAG A2(3Bcd|e2af gedB|c3d eged|(3cBA BG ABcd:|
|:eaag a3g|ea~a2 gedg|egdg egdg|eaaf gedg|
eaag a3g|ea~a2 gedB|c3d eged|(3cBA BG ABcd:|

